packages/katcn/src/icons/svg/arrow13.svg

<svg width="24" height="25" viewBox="0 0 24 25" fill="none" xmlns="http://www.w3.org/2000/svg">
<path d="M15.5 11.696H19.4C20.4 11.696 21.3001 11.096 21.7001 10.096C22.1 9.09598 21.9001 8.09598 21.2001 7.39598L19.7001 5.89598L21.6 3.99598C22 3.59598 22 2.99598 21.6 2.59598C21.2001 2.19598 20.6001 2.19598 20.2001 2.59598L17.6 5.19598C17.4001 5.39598 17.3 5.69598 17.3 5.89598C17.3 6.19598 17.4001 6.39598 17.6 6.59598L19.8 8.79598C20.1 8.99598 20 9.29598 20 9.29598C20 9.39598 19.8 9.59598 19.5 9.59598H15.6C15.1 9.59598 14.7 9.19598 14.7 8.69598V4.79598C14.7 4.49598 14.9 4.39598 15 4.29598C15.1 4.29598 15.3001 4.19598 15.6 4.39598C16.0001 4.79598 16.6 4.79598 17 4.39598C17.4 3.99598 17.4 3.39598 17 2.99598C16.3 2.29598 15.2 2.09598 14.3 2.49598C13.4 2.89598 12.7 3.79598 12.7 4.79598V8.69598C12.6 10.396 13.9 11.696 15.5 11.696Z" fill="black"/>
<path d="M9.80002 2.49598C8.90002 2.09598 7.80002 2.29598 7.10002 2.99598L5.60002 4.49598L3.70002 2.59598C3.30002 2.19598 2.70002 2.19598 2.30002 2.59598C1.90002 2.99598 1.90002 3.59598 2.30002 3.99598L4.90002 6.59598C5.10002 6.79598 5.40002 6.89598 5.60002 6.89598C5.80002 6.89598 6.10002 6.79598 6.30002 6.59598L8.50002 4.39598C8.70002 4.19598 8.90002 4.29598 9.00002 4.29598C9.10002 4.29598 9.30002 4.49598 9.30002 4.79598V8.69598C9.40002 9.29598 9.00002 9.69598 8.50002 9.69598H4.50002C4.20002 9.69598 4.10002 9.39598 4.00002 9.29598C4.00002 9.19598 3.90002 8.99598 4.10002 8.69598C4.50002 8.29598 4.50002 7.69598 4.10002 7.29598C3.70002 6.89598 3.10002 6.89598 2.70002 7.29598C2.00002 8.09598 1.80002 9.19598 2.20002 10.096C2.60002 10.996 3.50002 11.696 4.50002 11.696H8.40002C10 11.696 11.3 10.396 11.3 8.79598V4.79598C11.4 3.79598 10.8 2.89598 9.80002 2.49598Z" fill="black"/>
<path d="M19.1 17.996C18.7 17.596 18.1 17.596 17.7 17.996L15.5 20.196C15.3 20.396 15.1 20.296 15 20.296C14.9 20.296 14.7 20.096 14.7 19.796V15.896C14.7 15.396 15.1 14.996 15.6 14.996H19.5C19.8 14.996 19.9 15.196 20 15.296C20 15.396 20.1 15.596 19.9 15.896C19.5 16.296 19.5 16.896 19.9 17.296C20.3 17.696 20.9 17.696 21.3 17.296C22 16.596 22.2 15.496 21.8 14.596C21.4 13.696 20.5 12.996 19.5 12.996H15.6C14 12.996 12.7 14.296 12.7 15.896V19.796C12.7 20.796 13.3 21.696 14.3 22.096C14.6 22.196 14.9 22.296 15.3 22.296C16 22.296 16.6 21.996 17.1 21.596L18.6 20.096L20.5 21.996C20.7 22.196 21 22.296 21.2 22.296C21.4 22.296 21.7 22.196 21.9 21.996C22.3 21.596 22.3 20.996 21.9 20.596L19.1 17.996Z" fill="black"/>
<path d="M8.50002 12.896H4.50002C3.50002 12.896 2.60002 13.496 2.20002 14.496C1.80002 15.396 2.00002 16.496 2.70002 17.196L4.20002 18.696L2.30002 20.596C1.90002 20.996 1.90002 21.596 2.30002 21.996C2.50002 22.196 2.70002 22.296 3.00002 22.296C3.30002 22.296 3.50002 22.196 3.70002 21.996L6.30002 19.396C6.70002 18.996 6.70002 18.396 6.30002 17.996L4.10002 15.796C3.90002 15.596 4.00002 15.396 4.00002 15.296C4.00002 15.196 4.20002 14.996 4.50002 14.996H8.40002C8.90002 14.996 9.30002 15.396 9.30002 15.896V19.796C9.30002 20.096 9.10002 20.196 9.00002 20.296C8.90002 20.296 8.70002 20.396 8.40002 20.196C8.00002 19.796 7.40002 19.796 7.00002 20.196C6.60002 20.596 6.60002 21.196 7.00002 21.596C7.60002 21.996 8.20002 22.296 8.80002 22.296C9.10002 22.296 9.50002 22.196 9.80002 22.096C10.7 21.696 11.4 20.796 11.4 19.796V15.896C11.4 14.196 10.1 12.896 8.50002 12.896Z" fill="black"/>
</svg>

<svg xmlns="http://www.w3.org/2000/svg" fill="none" viewBox="0 0 24 25"><path fill="#000" d="M15.5 11.696h3.9c1 0 1.9-.6 2.3-1.6s.2-2-.5-2.7l-1.5-1.5 1.9-1.9c.4-.4.4-1 0-1.4s-1-.4-1.4 0l-2.6 2.6c-.2.2-.3.5-.3.7 0 .3.1.5.3.7l2.2 2.2c.3.2.2.5.2.5 0 .1-.2.3-.5.3h-3.9c-.5 0-.9-.4-.9-.9v-3.9c0-.3.2-.4.3-.5.1 0 .3-.1.6.1.4.4 1 .4 1.4 0s.4-1 0-1.4c-.7-.7-1.8-.9-2.7-.5s-1.6 1.3-1.6 2.3v3.9c-.1 1.7 1.2 3 2.8 3m-5.7-9.2c-.9-.4-2-.2-2.7.5l-1.5 1.5-1.9-1.9c-.4-.4-1-.4-1.4 0s-.4 1 0 1.4l2.6 2.6c.2.2.5.3.7.3s.5-.1.7-.3l2.2-2.2c.2-.2.4-.1.5-.1s.3.2.3.5v3.9c.1.6-.3 1-.8 1h-4c-.3 0-.4-.3-.5-.4 0-.1-.1-.3.1-.6.4-.4.4-1 0-1.4s-1-.4-1.4 0c-.7.8-.9 1.9-.5 2.8s1.3 1.6 2.3 1.6h3.9c1.6 0 2.9-1.3 2.9-2.9v-4c.1-1-.5-1.9-1.5-2.3m9.3 15.5c-.4-.4-1-.4-1.4 0l-2.2 2.2c-.2.2-.4.1-.5.1s-.3-.2-.3-.5v-3.9c0-.5.4-.9.9-.9h3.9c.3 0 .4.2.5.3 0 .1.1.3-.1.6-.4.4-.4 1 0 1.4s1 .4 1.4 0c.7-.7.9-1.8.5-2.7s-1.3-1.6-2.3-1.6h-3.9c-1.6 0-2.9 1.3-2.9 2.9v3.9c0 1 .6 1.9 1.6 2.3.3.1.6.2 1 .2.7 0 1.3-.3 1.8-.7l1.5-1.5 1.9 1.9c.2.2.5.3.7.3s.5-.1.7-.3c.4-.4.4-1 0-1.4zm-10.6-5.1h-4c-1 0-1.9.6-2.3 1.6-.4.9-.2 2 .5 2.7l1.5 1.5-1.9 1.9c-.4.4-.4 1 0 1.4.2.2.4.3.7.3s.5-.1.7-.3l2.6-2.6c.4-.4.4-1 0-1.4l-2.2-2.2c-.2-.2-.1-.4-.1-.5s.2-.3.5-.3h3.9c.5 0 .9.4.9.9v3.9c0 .3-.2.4-.3.5-.1 0-.3.1-.6-.1-.4-.4-1-.4-1.4 0s-.4 1 0 1.4c.6.4 1.2.7 1.8.7.3 0 .7-.1 1-.2.9-.4 1.6-1.3 1.6-2.3v-3.9c0-1.7-1.3-3-2.9-3"/></svg>
